Gruvbox-Plus-Dark/actions/16/view-financial-category-income.svg

<svg width="16" height="16" version="1.1" xmlns="http://www.w3.org/2000/svg">
  <defs>
    <style type="text/css">.ColorScheme-Text { color:#ebdbb2; } .ColorScheme-Highlight { color:#458588; }</style>
  </defs>
  <path class="ColorScheme-Text" d="m1.375 1c-0.2077 0-0.375 0.1673-0.375 0.375v1.25c0 0.2077 0.1673 0.375 0.375 0.375h1.25c0.2077 0 0.375-0.1673 0.375-0.375v-1.25c0-0.2077-0.1673-0.375-0.375-0.375zm3.625 0v2h10v-2zm-3.625 4c-0.2077 0-0.375 0.1673-0.375 0.375v1.25c0 0.2077 0.1673 0.375 0.375 0.375h1.25c0.2077 0 0.375-0.1673 0.375-0.375v-1.25c0-0.2077-0.1673-0.375-0.375-0.375zm3.625 0v2h10v-2zm-3.625 4c-0.2077 0-0.375 0.1673-0.375 0.375v1.25c0 0.2078 0.1673 0.375 0.375 0.375h1.25c0.2077 0 0.375-0.1672 0.375-0.375v-1.25c0-0.2077-0.1673-0.375-0.375-0.375zm3.625 0v2h5v-2zm-3.625 4c-0.2077 0-0.375 0.1672-0.375 0.375v1.25c0 0.2078 0.1673 0.375 0.375 0.375h1.25c0.2077 0 0.375-0.1672 0.375-0.375v-1.25c0-0.2078-0.1673-0.375-0.375-0.375zm3.625 0v2h5v-2zm7-2.949c-0.5523 0-1 0.4477-1 1s0.4477 1 1 1 1-0.4477 1-1-0.4477-1-1-1zm2 0.05469v1.033c0.5986 0.2116 0.9991 0.7772 1 1.412-8.91e-4 0.6349-0.4014 1.2-1 1.412v1.037c1.164-0.2376 2-1.261 2-2.449-2e-3 -1.186-0.8376-2.208-2-2.445zm-2 2.945c-0.5523 0-1 0.4477-1 1s0.4477 1 1 1 1-0.4477 1-1-0.4477-1-1-1z" fill="currentColor"/>
</svg>

<svg width="16" height="16" version="1.1" xmlns="http://www.w3.org/2000/svg">
  <defs>
    <style type="text/css">.ColorScheme-Text { color:#ebdbb2; } .ColorScheme-Highlight { color:#458588; } .ColorScheme-PositiveText { color:#689d6a; }</style>
  </defs>
  <path class="ColorScheme-Text" d="M 1.375,1 C 1.1673,1 1,1.1673 1,1.375 v 1.25 C 1,2.8327 1.1673,3 1.375,3 h 1.25 C 2.8327,3 3,2.8327 3,2.625 V 1.375 C 3,1.1673 2.8327,1 2.625,1 Z M 5,1 V 3 H 15 V 1 Z M 1.375,5 C 1.1673,5 1,5.1673 1,5.375 v 1.25 C 1,6.8327 1.1673,7 1.375,7 h 1.25 C 2.8327,7 3,6.8327 3,6.625 V 5.375 C 3,5.1673 2.8327,5 2.625,5 Z M 5,5 V 7 H 15 V 5 Z M 1.375,9 C 1.1673,9 1,9.1673 1,9.375 v 1.25 C 1,10.8328 1.1673,11 1.375,11 h 1.25 C 2.8327,11 3,10.8328 3,10.625 V 9.375 C 3,9.1673 2.8327,9 2.625,9 Z M 5,9 v 2 H 9 L 11,9 Z M 1.375,13 C 1.1673,13 1,13.1672 1,13.375 v 1.25 C 1,14.8328 1.1673,15 1.375,15 h 1.25 C 2.8327,15 3,14.8328 3,14.625 v -1.25 C 3,13.1672 2.8327,13 2.625,13 Z M 5,13 v 2 h 6 L 9,13 Z" fill="currentColor"/>
  <path class="ColorScheme-PositiveText" fill="currentColor" d="m10 12 3.489-3v2h2.511v2h-2.511v2z"/>
</svg>
